public/svgs/icons/client.svg

<svg fill="none" height="59" viewBox="0 0 93 59" width="93" xmlns="http://www.w3.org/2000/svg"><g fill="#ed6a5e"><path d="m74.6498 46.9301c-1.1635.0027-2.2917-.4004-3.19-1.14l-17.52-15.79 1-1.12 17.5 15.81c.7293.5338 1.6356.7675 2.5321.653s1.715-.5685 2.2867-1.2684c.5718-.6999.8533-1.5925.7865-2.4938-.0667-.9014-.4766-1.7427-1.1453-2.3508l-27.31-24.51 1-1.12 27.29 24.45c.8068.6554 1.3892 1.546 1.6662 2.5478.2771 1.0018.235 2.0651-.1203 3.0419s-1.0062 1.8186-1.8621 2.4083c-.856.5897-1.8745.898-2.9138.882z"/><path d="m66.3804 51.0001c-1.1602.0004-2.2844-.4026-3.18-1.14l-1.3-1.09 1-1.15 1.29 1.08c.3574.3021.7717.5296 1.2184.6693.4467.1396.9168.1885 1.3827.1438.4659-.0448.9181-.1822 1.3301-.4043.4119-.222.7753-.5243 1.0688-.8888.2995-.3586.5249-.7732.663-1.2195.1381-.4464.1863-.9157.1416-1.3808-.0446-.4651-.1812-.9167-.4017-1.3287-.2205-.4119-.5206-.776-.8829-1.071l-10.31-9.22 1-1.11 10.2 9.21c.7864.6246 1.3665 1.4716 1.6647 2.4305.2982.959.3007 1.9856.0071 2.946-.2935.9605-.8694 1.8103-1.6528 2.4387-.7833.6285-1.7378 1.0065-2.739 1.0848-.1665.0099-.3335.0099-.5 0z"/><path d="m58.5603 55.12c-1.1602.0026-2.2862-.3927-3.19-1.12l-13.84-12.53 1-1.11 13.82 12.48c.728.564 1.6477.8211 2.5627.7164.915-.1046 1.7528-.5627 2.3348-1.2764.582-.7138.8619-1.6267.7802-2.544s-.5187-1.7664-1.2177-2.366l-11.46-10.51 1-1.11 11.44 10.49c1.015.8443 1.6548 2.0557 1.78 3.37.0716.6982-.0046 1.4036-.2236 2.0704-.219.6667-.576 1.28-1.0476 1.7997s-1.0474.9343-1.6898 1.2169c-.6425.2825-1.3372.4267-2.039.423z"/><path d="m49.6499 58.4601c-1.1601.0004-2.2843-.4026-3.18-1.14l-3.2-2.75 1-1.14 3.18 2.74c.3496.2992.7548.5265 1.1924.6689.4375.1424.8989.1972 1.3576.1611.695-.0676 1.3542-.3399 1.8945-.7822.5402-.4424.9371-1.035 1.1405-1.703.2033-.6679.2041-1.3812.002-2.0495-.202-.6684-.5977-1.2618-1.137-1.7053l-10.23-9.28 1-1.11 10.2 9.21c.7727.6288 1.3399 1.474 1.629 2.4273.289.9533.2868 1.9712-.0066 2.9232-.2933.952-.8643 1.7947-1.6398 2.42-.7755.6252-1.72 1.0046-2.7126 1.0895-.1628.0162-.3264.0229-.49.02z"/></g><path d="m24.2805 51.8802c-.8828.0015-1.7461-.2595-2.4801-.75-.9897-.6597-1.6772-1.6852-1.9116-2.8514-.2343-1.1662.0036-2.3777.6616-3.3686l3.09-4.5c.6595-.9874 1.684-1.6727 2.8484-1.9052s2.3735.0067 3.3616.6652c.9891.6579 1.6765 1.6817 1.9109 2.8462s-.0033 2.3745-.6609 3.3638l-3.1 4.51c-.4076.613-.9607 1.1155-1.6098 1.4627s-1.374.5284-2.1101.5273zm-1.6501-2c.6602.4352 1.4655.5921 2.2408.4367.7753-.1555 1.4578-.6107 1.8993-1.2667l3.0899-4.51c.3721-.6619.4793-1.4404.2999-2.1782-.1793-.7379-.6317-1.3803-1.2661-1.7977-.6343-.4174-1.4034-.5787-2.152-.4514s-1.421.5337-1.8817 1.1373l-3.0901 4.5c-.431.6606-.5845 1.4644-.4273 2.2374.1572.7729.6125 1.4529 1.2674 1.8926z" fill="#bad8db"/><path d="m31.5304 55.92c-.8166.0048-1.6191-.2138-2.3205-.6321s-1.2752-1.0203-1.6592-1.741c-.3841-.7208-.5638-1.5328-.5198-2.3483.044-.8154.3101-1.6034.7695-2.2786l3.09-4.51c.6659-.9804 1.6924-1.6579 2.8557-1.8845 1.1633-.2267 2.3691.0158 3.3543.6745.9898.6598 1.6773 1.6853 1.9117 2.8514.2343 1.1662-.0036 2.3777-.6617 3.3686l-3.09 4.5c-.3239.4901-.7416.9111-1.229 1.239-.4875.3278-1.035.5559-1.611.671-.293.0591-.5911.0893-.89.09zm3.09-12c-.4923.0004-.9769.1219-1.4112.3538-.4342.232-.8047.5672-1.0788.9762l-3.13 4.54c-.317.4932-.4825 1.0685-.4761 1.6547.0064.5863.1844 1.1578.5121 1.644.3276.4862.7906.8657 1.3316 1.0916.541.226 1.1363.2884 1.7124.1797.3898-.0728.7609-.2238 1.0908-.4437.33-.22.6121-.5045.8292-.8363l3.09-4.5c.2782-.4486.4331-.9627.4491-1.4903.0159-.5276-.1076-1.0501-.3582-1.5148-.2505-.4646-.6193-.8548-1.0689-1.1314-.4496-.2765-.9643-.4295-1.492-.4435z" fill="#bad8db"/><path d="m39.0997 58.5199c-.7475-.0032-1.4777-.2258-2.1-.64-.4185-.2764-.7781-.6329-1.0582-1.049-.28-.4161-.4749-.8835-.5735-1.3752-.0985-.4918-.0987-.9982-.0006-1.4901.0981-.4918.2926-.9594.5723-1.3757l2.53-3.7c.4196-.6272 1.0155-1.1161 1.7126-1.405s1.4642-.3649 2.2044-.2184c.7403.1466 1.4205.5091 1.955 1.0418.5344.5328.8991 1.2118 1.048 1.9516.0997.4917.1016.9983.0055 1.4907-.0961.4925-.2882.9611-.5655 1.3793l-2.54 3.7c-.2766.4163-.6329.7737-1.0482 1.0517-.4153.2781-.8815.4712-1.3718.5683-.2537.0487-.5116.0722-.77.07zm2.54-9.82c-.153-.0148-.307-.0148-.46 0-.2991.0608-.5831.1805-.8355.3522s-.4681.3919-.6345.6478l-2.54 3.7c-.3352.5114-.455 1.1345-.3333 1.7337.1217.5993.4751 1.1262.9833 1.4663.2519.1717.5357.2912.8346.3513.2988.0601.6067.0597.9054-.0013.5819-.1254 1.0957-.4644 1.44-.95l2.53-3.7c.3358-.5129.4558-1.1376.3342-1.7385-.1217-.6008-.4753-1.1296-.9842-1.4715-.3687-.2435-.7983-.3786-1.24-.39z" fill="#bad8db"/><path d="m15.6397 48.6901c-.873.0156-1.7315-.2242-2.47-.69-.9877-.6615-1.6734-1.6869-1.9076-2.8522-.2342-1.1654.0022-2.3761.6576-3.3678l3.08-4.56c.663-.9906 1.6924-1.6772 2.8617-1.9088s2.3827.0108 3.3733.6738c.9905.6631 1.6772 1.6924 1.9088 2.8617s-.0108 2.3827-.6738 3.3733l-3.09 4.5c-.4132.6108-.9707 1.1102-1.6231 1.4539-.6524.3436-1.3796.5209-2.1169.5161zm-1.64-1.99c.6614.4342 1.4675.5895 2.2429.4322s1.4572-.6146 1.8971-1.2722l3.08-4.5c.3864-.6625.5044-1.4478.3298-2.1946s-.6286-1.3983-1.2687-1.8208-1.4176-.5837-2.173-.4507c-.7553.1331-1.4309.5503-1.8881 1.1661l-3.08 4.51c-.4292.663-.5796 1.4685-.4186 2.2417s.6204 1.4517 1.2786 1.8883z" fill="#bad8db"/><path d="m13.85 39.08c-5.18-4.08-13-7.31-13.07-7.34l-.78-.32 15.35-28.42.64.28c4.9201 2.16923 10.1988 3.41008 15.57 3.66l2.23.11-.07 1.5-2.23-.11c-5.3306-.25015-10.5748-1.44186-15.49-3.52l-13.89 25.75c4.49163 1.9102 8.744 4.3401 12.67 7.24z" fill="#ed6a5e"/><path d="m78.2303 38.8601c-.1657.0013-.3272-.0523-.4592-.1524-.132-.1002-.2271-.2412-.2705-.4011s-.0326-.3297.0306-.4828c.0633-.1532.1755-.281.3191-.3637l12.58-7.28-11.84-25.18003-2.27 1.14c-1.6257.93124-3.4448 1.47361-5.315 1.58464-1.8701.11103-3.7406-.21229-5.465-.94464l-11.09-4.7c-.9013-.38342-1.8706-.58105-2.85-.58105-.9795 0-1.9488.19763-2.85.58105l-12.75 5.45c-1.2764.54012-2.3334 1.4949-3 2.71003l-7.85 11.07c-.021.0383-.0321.0813-.0321.125s.0111.0867.0321.125c.0117.0404.0335.0771.0632.1068s.0664.0514.1068.0632c2.64.83 7.06 2.22 14.08-6l.16-.19 12.44-2.71c.1949-.0424.3987-.0057.5666.1022.1678.1078.2859.2779.3284.4728.0424.1949.0057.3988-.1022.5666-.1078.1678-.2779.286-.4728.3284l-12 2.61c-7.57 8.74-12.72 7.12-15.5 6.25-.2672-.0836-.5107-.2294-.7106-.4255-.1998-.196-.3503-.4366-.4391-.7021-.0889-.2654-.1134-.5482-.0718-.825.0417-.2768.1484-.5398.3115-.7674l7.83-11.00003c.8177-1.47743 2.106-2.63901 3.66-3.3l12.76-5.429997c1.0816-.458684 2.2441-.6958948 3.419-.6976124 1.1748-.0017176 2.338.2320924 3.421.6876124l11.13 4.699997c1.5157.64257 3.1599.92463 4.8032.82398 1.6433-.10064 3.2407-.58124 4.6668-1.40398l3.68-1.88 13.09 27.84003-13.77 8c-.1135.0606-.2417.0884-.37.08z" fill="#bad8db"/></svg>

<svg width="93" height="59" viewBox="0 0 93 59" fill="none" xmlns="http://www.w3.org/2000/svg">
<path d="M74.6498 46.9301C73.4863 46.9328 72.3581 46.5297 71.4598 45.7901L53.9398 30.0001L54.9398 28.8801L72.4398 44.6901C73.1691 45.2239 74.0754 45.4576 74.9719 45.3431C75.8684 45.2286 76.6869 44.7746 77.2586 44.0747C77.8304 43.3748 78.1119 42.4822 78.0451 41.5809C77.9784 40.6795 77.5685 39.8382 76.8998 39.2301L49.5898 14.7201L50.5898 13.6001L77.8798 38.0501C78.6866 38.7055 79.269 39.5961 79.546 40.5979C79.8231 41.5997 79.781 42.663 79.4257 43.6398C79.0704 44.6166 78.4195 45.4584 77.5636 46.0481C76.7076 46.6378 75.6891 46.9461 74.6498 46.9301Z" fill="#ED6A5E"/>
<path d="M66.3804 51.0001C65.2202 51.0005 64.096 50.5975 63.2004 49.8601L61.9004 48.7701L62.9004 47.6201L64.1904 48.7001C64.5478 49.0022 64.9621 49.2297 65.4088 49.3694C65.8555 49.509 66.3256 49.5579 66.7915 49.5132C67.2574 49.4684 67.7096 49.331 68.1216 49.1089C68.5335 48.8869 68.8969 48.5846 69.1904 48.2201C69.4899 47.8615 69.7153 47.4469 69.8534 47.0006C69.9915 46.5542 70.0397 46.0849 69.995 45.6198C69.9504 45.1547 69.8138 44.7031 69.5933 44.2911C69.3728 43.8792 69.0727 43.5151 68.7104 43.2201L58.4004 34.0001L59.4004 32.8901L69.6004 42.1001C70.3868 42.7247 70.9669 43.5717 71.2651 44.5306C71.5633 45.4896 71.5658 46.5162 71.2722 47.4766C70.9787 48.4371 70.4028 49.2869 69.6194 49.9153C68.8361 50.5438 67.8816 50.9218 66.8804 51.0001C66.7139 51.01 66.5469 51.01 66.3804 51.0001Z" fill="#ED6A5E"/>
<path d="M58.5603 55.12C57.4001 55.1226 56.2741 54.7273 55.3703 54L41.5303 41.47L42.5303 40.36L56.3503 52.84C57.0783 53.404 57.998 53.6611 58.913 53.5564C59.828 53.4518 60.6658 52.9937 61.2478 52.28C61.8298 51.5662 62.1097 50.6533 62.028 49.736C61.9463 48.8187 61.5093 47.9696 60.8103 47.37L49.3503 36.86L50.3503 35.75L61.7903 46.24C62.8053 47.0843 63.4451 48.2957 63.5703 49.61C63.6419 50.3082 63.5657 51.0136 63.3467 51.6804C63.1277 52.3471 62.7707 52.9604 62.2991 53.4801C61.8275 53.9998 61.2517 54.4144 60.6093 54.697C59.9668 54.9795 59.2721 55.1237 58.5703 55.12H58.5603Z" fill="#ED6A5E"/>
<path d="M49.6499 58.4601C48.4898 58.4605 47.3656 58.0575 46.4699 57.3201L43.2699 54.5701L44.2699 53.4301L47.4499 56.1701C47.7995 56.4693 48.2047 56.6966 48.6423 56.839C49.0798 56.9814 49.5412 57.0362 49.9999 57.0001C50.6949 56.9325 51.3541 56.6602 51.8944 56.2179C52.4346 55.7755 52.8315 55.1829 53.0349 54.5149C53.2382 53.847 53.239 53.1337 53.0369 52.4654C52.8349 51.797 52.4392 51.2036 51.8999 50.7601L41.6699 41.4801L42.6699 40.3701L52.8699 49.5801C53.6426 50.2089 54.2098 51.0541 54.4989 52.0074C54.7879 52.9607 54.7857 53.9786 54.4923 54.9306C54.199 55.8826 53.628 56.7253 52.8525 57.3506C52.077 57.9758 51.1325 58.3552 50.1399 58.4401C49.9771 58.4563 49.8135 58.463 49.6499 58.4601Z" fill="#ED6A5E"/>
<path d="M24.2805 51.8802C23.3977 51.8817 22.5344 51.6207 21.8004 51.1302C20.8107 50.4705 20.1232 49.445 19.8888 48.2788C19.6545 47.1126 19.8924 45.9011 20.5504 44.9102L23.6404 40.4102C24.2999 39.4228 25.3244 38.7375 26.4888 38.505C27.6532 38.2725 28.8623 38.5117 29.8504 39.1702C30.8395 39.8281 31.5269 40.8519 31.7613 42.0164C31.9957 43.1809 31.758 44.3909 31.1004 45.3802L28.0004 49.8902C27.5928 50.5032 27.0397 51.0057 26.3906 51.3529C25.7415 51.7001 25.0166 51.8813 24.2805 51.8802ZM22.6304 49.8802C23.2906 50.3154 24.0959 50.4723 24.8712 50.3169C25.6465 50.1614 26.329 49.7062 26.7705 49.0502L29.8604 44.5402C30.2325 43.8783 30.3397 43.0998 30.1603 42.362C29.981 41.6241 29.5286 40.9817 28.8942 40.5643C28.2599 40.1469 27.4908 39.9856 26.7422 40.1129C25.9936 40.2402 25.3212 40.6466 24.8605 41.2502L21.7704 45.7502C21.3394 46.4108 21.1859 47.2146 21.3431 47.9876C21.5003 48.7605 21.9556 49.4405 22.6105 49.8802H22.6304Z" fill="#BAD8DB"/>
<path d="M31.5304 55.92C30.7138 55.9248 29.9113 55.7062 29.2099 55.2879C28.5085 54.8696 27.9347 54.2676 27.5507 53.5469C27.1666 52.8261 26.9869 52.0141 27.0309 51.1986C27.0749 50.3832 27.341 49.5952 27.8004 48.92L30.8904 44.41C31.5563 43.4296 32.5828 42.7521 33.7461 42.5255C34.9094 42.2988 36.1152 42.5413 37.1004 43.2C38.0902 43.8598 38.7777 44.8853 39.0121 46.0514C39.2464 47.2176 39.0085 48.4291 38.3504 49.42L35.2604 53.92C34.9365 54.4101 34.5188 54.8311 34.0314 55.159C33.5439 55.4868 32.9964 55.7149 32.4204 55.83C32.1274 55.8891 31.8293 55.9193 31.5304 55.92ZM34.6204 43.92C34.1281 43.9204 33.6435 44.0419 33.2092 44.2738C32.775 44.5058 32.4045 44.841 32.1304 45.25L29.0004 49.79C28.6834 50.2832 28.5179 50.8585 28.5243 51.4447C28.5307 52.031 28.7087 52.6025 29.0364 53.0887C29.364 53.5749 29.827 53.9544 30.368 54.1803C30.909 54.4063 31.5043 54.4687 32.0804 54.36C32.4702 54.2872 32.8413 54.1362 33.1712 53.9163C33.5012 53.6963 33.7833 53.4118 34.0004 53.08L37.0904 48.58C37.3686 48.1314 37.5235 47.6173 37.5395 47.0897C37.5554 46.5621 37.4319 46.0396 37.1813 45.5749C36.9308 45.1103 36.562 44.7201 36.1124 44.4435C35.6628 44.167 35.1481 44.014 34.6204 44V43.92Z" fill="#BAD8DB"/>
<path d="M39.0997 58.5199C38.3522 58.5167 37.622 58.2941 36.9997 57.8799C36.5812 57.6035 36.2216 57.247 35.9415 56.8309C35.6615 56.4148 35.4666 55.9474 35.368 55.4557C35.2695 54.9639 35.2693 54.4575 35.3674 53.9656C35.4655 53.4738 35.66 53.0062 35.9397 52.5899L38.4697 48.8899C38.8893 48.2627 39.4852 47.7738 40.1823 47.4849C40.8794 47.196 41.6465 47.12 42.3867 47.2665C43.127 47.4131 43.8072 47.7756 44.3417 48.3083C44.8761 48.8411 45.2408 49.5201 45.3897 50.2599C45.4894 50.7516 45.4913 51.2582 45.3952 51.7506C45.2991 52.2431 45.107 52.7117 44.8297 53.1299L42.2897 56.8299C42.0131 57.2462 41.6568 57.6036 41.2415 57.8816C40.8262 58.1597 40.36 58.3528 39.8697 58.4499C39.616 58.4986 39.3581 58.5221 39.0997 58.5199ZM41.6397 48.6999C41.4867 48.6851 41.3327 48.6851 41.1797 48.6999C40.8806 48.7607 40.5966 48.8804 40.3442 49.0521C40.0918 49.2238 39.8761 49.444 39.7097 49.6999L37.1697 53.3999C36.8345 53.9113 36.7147 54.5344 36.8364 55.1336C36.9581 55.7329 37.3115 56.2598 37.8197 56.5999C38.0716 56.7716 38.3554 56.8911 38.6543 56.9512C38.9531 57.0113 39.261 57.0109 39.5597 56.9499C40.1416 56.8245 40.6554 56.4855 40.9997 55.9999L43.5297 52.2999C43.8655 51.787 43.9855 51.1623 43.8639 50.5614C43.7422 49.9606 43.3886 49.4318 42.8797 49.0899C42.511 48.8464 42.0814 48.7113 41.6397 48.6999Z" fill="#BAD8DB"/>
<path d="M15.6397 48.6901C14.7667 48.7057 13.9082 48.4659 13.1697 48.0001C12.182 47.3386 11.4963 46.3132 11.2621 45.1479C11.0279 43.9825 11.2643 42.7718 11.9197 41.7801L14.9997 37.2201C15.6627 36.2295 16.6921 35.5429 17.8614 35.3113C19.0307 35.0797 20.2441 35.3221 21.2347 35.9851C22.2252 36.6482 22.9119 37.6775 23.1435 38.8468C23.3751 40.0161 23.1327 41.2295 22.4697 42.2201L19.3797 46.7201C18.9665 47.3309 18.409 47.8303 17.7566 48.174C17.1042 48.5176 16.377 48.6949 15.6397 48.6901ZM13.9997 46.7001C14.6611 47.1343 15.4672 47.2896 16.2426 47.1323C17.018 46.975 17.6998 46.5177 18.1397 45.8601L21.2197 41.3601C21.6061 40.6976 21.7241 39.9123 21.5495 39.1655C21.3749 38.4187 20.9209 37.7672 20.2808 37.3447C19.6407 36.9222 18.8632 36.761 18.1078 36.894C17.3525 37.0271 16.6769 37.4443 16.2197 38.0601L13.1397 42.5701C12.7105 43.2331 12.5601 44.0386 12.7211 44.8118C12.8821 45.585 13.3415 46.2635 13.9997 46.7001Z" fill="#BAD8DB"/>
<path d="M13.85 39.08C8.67 35 0.85 31.77 0.78 31.74L0 31.42L15.35 3L15.99 3.28C20.9101 5.44923 26.1888 6.69008 31.56 6.94L33.79 7.05L33.72 8.55L31.49 8.44C26.1594 8.18985 20.9152 6.99814 16 4.92L2.11 30.67C6.60163 32.5802 10.854 35.0101 14.78 37.91L13.85 39.08Z" fill="#ED6A5E"/>
<path d="M78.2303 38.8601C78.0646 38.8614 77.9031 38.8078 77.7711 38.7077C77.6391 38.6075 77.544 38.4665 77.5006 38.3066C77.4572 38.1467 77.468 37.9769 77.5312 37.8238C77.5945 37.6706 77.7067 37.5428 77.8503 37.4601L90.4303 30.1801L78.5903 5.00007L76.3203 6.14007C74.6946 7.07131 72.8755 7.61368 71.0053 7.72471C69.1352 7.83574 67.2647 7.51242 65.5403 6.78007L54.4503 2.08007C53.549 1.69665 52.5797 1.49902 51.6003 1.49902C50.6208 1.49902 49.6515 1.69665 48.7503 2.08007L36.0003 7.53007C34.7239 8.07019 33.6669 9.02497 33.0003 10.2401L25.1503 21.3101C25.1293 21.3484 25.1182 21.3914 25.1182 21.4351C25.1182 21.4788 25.1293 21.5218 25.1503 21.5601C25.162 21.6005 25.1838 21.6372 25.2135 21.6669C25.2432 21.6966 25.2799 21.7183 25.3203 21.7301C27.9603 22.5601 32.3803 23.9501 39.4003 15.7301L39.5603 15.5401L52.0003 12.8301C52.1952 12.7877 52.399 12.8244 52.5669 12.9323C52.7347 13.0401 52.8528 13.2102 52.8953 13.4051C52.9377 13.6 52.901 13.8039 52.7931 13.9717C52.6853 14.1395 52.5152 14.2577 52.3203 14.3001L40.3203 16.9101C32.7503 25.6501 27.6003 24.0301 24.8203 23.1601C24.5531 23.0765 24.3096 22.9307 24.1097 22.7346C23.9099 22.5386 23.7594 22.298 23.6706 22.0325C23.5817 21.7671 23.5572 21.4843 23.5988 21.2075C23.6405 20.9307 23.7472 20.6677 23.9103 20.4401L31.7403 9.44007C32.558 7.96264 33.8463 6.80106 35.4003 6.14007L48.1603 0.710073C49.2419 0.251389 50.4044 0.0141782 51.5793 0.0124606C52.7541 0.010743 53.9173 0.244553 55.0003 0.700073L66.1303 5.40007C67.646 6.04264 69.2902 6.3247 70.9335 6.22405C72.5768 6.12341 74.1742 5.64281 75.6003 4.82007L79.2803 2.94007L92.3703 30.7801L78.6003 38.7801C78.4868 38.8407 78.3586 38.8685 78.2303 38.8601Z" fill="#BAD8DB"/>
</svg>
